src/Icon/svgs/BellOutlineOff.svg

<svg width="24" height="24" viewBox="0 0 24 24" fill="none" xmlns="http://www.w3.org/2000/svg">
<path d="M12 2C10.1733 2 8.48951 2.61227 7.14279 3.64279L8.5738 5.0738C9.54521 4.39691 10.7263 4 12 4C15.3137 4 18 6.68629 18 10V14.5L20 16.5V10C20 5.58172 16.4183 2 12 2Z" fill="#1B1C1D"/>
<path fill-rule="evenodd" clip-rule="evenodd" d="M21 20.5L19.5 22L17.5 20H3V17.7639L4 15.7639V10C4 8.96128 4.19796 7.9688 4.55822 7.05822L2.5 5L4 3.5L21 20.5ZM6.15202 8.65202C6.05255 9.08532 6 9.53652 6 10V16.2361L5.11803 18H15.5L6.15202 8.65202Z" fill="#1B1C1D"/>
<path d="M12 23C10.8954 23 10 22.1046 10 21H14C14 22.1046 13.1046 23 12 23Z" fill="#1B1C1D"/>
</svg>

<svg xmlns="http://www.w3.org/2000/svg" width="24" height="24" fill="#1b1c1d"  xmlns:v="https://vecta.io/nano"><path d="M12 2c-1.827 0-3.51.612-4.857 1.643l1.431 1.431A5.97 5.97 0 0 1 12 4a6 6 0 0 1 6 6v4.5l2 2V10a8 8 0 0 0-8-8z"/><path fill-rule="evenodd" d="M21 20.5L19.5 22l-2-2H3v-2.236l1-2V10a7.98 7.98 0 0 1 .558-2.942L2.5 5 4 3.5l17 17zM6.152 8.652A6.02 6.02 0 0 0 6 10v6.236L5.118 18H15.5L6.152 8.652z"/><path d="M12 23a2 2 0 0 1-2-2h4a2 2 0 0 1-2 2z"/></svg>
